X:1
T:Clermont, 10.4.10.4 D
T:Clermont, 10.4.10.4 D
T:William Smith Rockstro, 1899
T:Public Domain Courtesy of the Cyber Hymnal™
C:William Smith Rockstro, 1899
Z:Public Domain
Z:Courtesy of the Cyber Hymnal™
%%score ( 1 2 ) ( 3 4 )
L:1/8
Q:1/2=110
M:2/2
K:F
V:1 treble 
V:2 treble 
V:3 bass 
V:4 bass 
V:1
 [Ec]4 [Fc]4 | [FB]4 [FA]4 | [EG]4 [DF]4 | C4 [A,F]4 | [CG]4 [CA]4- | [CA]4 [CF]4- | [CF]4 [B,D]4 | %7
 [B,G]4 [A,F]4- | [A,F]8 | [Fc]4 [_Gc]4 | [FB]4 [FA]4 | [EG]4 [Fc]4 | [EA]4 [DF]4 | [DG]4 [^CA]4- | %14
 [CA]4 [EA]4- | [EA]4 [DF]4 | [DB]4 [^CA]4- | [CA]8 | [DA]4 [Ec]4 | [FA]4 [Fd]4 | [Ec]4 [FB]4 | %21
 A4 [EG]4 x2 | [F=B]4 [Ec]4- | [Ec]4 [Fd]4- | [Fd]4 [EG]4 | [Fd]4 [Ec]4- | [Ec]8 | [FA]4 [Fd]4 | %28
 [Fc]4 [EB]4 | [FA]4 [DG]4 | F4 [CE]4 | [CF]4 [CG]4- | [CG]4 [CA]4- | [CA]4 [B,D]4 | %34
 [B,G]4 !fermata![A,F]4- | [A,F]8 |] %36
V:2
 x8 | x8 | x8 | C4 x4 | x8 | x8 | x8 | x8 | x8 | x8 | x8 | x8 | x8 | x8 | x8 | x8 | x8 | x8 | x8 | %19
 x8 | x8 | (C2 D2) x6 | x8 | x8 | x8 | x8 | x8 | x8 | x8 | x8 | (A,2 B,2) x4 | x8 | x8 | x8 | x8 | %35
 x8 |] %36
V:3
 [C,G,]4 [F,A,]4 | [D,B,]4 [F,C]4 | [C,C]4 [D,A,]4 | [E,G,]4 [D,F,]4 | [C,E,]4 [F,,F,]4- | %5
 [F,,F,]4 [A,,F,]4- | [A,,F,]4 [B,,F,]4 | [C,E,]4 [F,,F,]4- | [F,,F,]8 | [F,A,]4 [_E,A,]4 | %10
 [D,B,]4 [C,C]4 | [C,_D]4 [B,,C]4 | [C,C]4 [D,A,]4 | [B,,D,]4 [A,,E,]4- | [A,,E,]4 [^C,A,]4- | %15
 [C,A,]4 [D,A,]4 | (G,2 F,2) [A,,E,]4- | [A,,E,]8 | [D,F,]4 [C,G,]4 | [F,A,]4 [B,,B,]4 | %20
 [C,G,]4 (F,2 G,2) | (A,2 =B,2) C4 x2 | z2 [C,G,]4- x2 | [C,G,]4 [=B,,G,]4- | [B,,G,]4 [C,G,]4 | %25
 (A,2 =B,2) [C,C]4- | [C,C]8 | [F,C]4 [B,,B,]4 | [F,A,]4 [C,G,]4 | [F,A,]4 [B,,B,]4 | %30
 [D,F,]4 [C,G,]4 | F,4 [C,E,]4- | [C,E,]4 [F,,F,]4- | [F,,F,]4 [B,,F,]4 | %34
 [C,E,]4 !fermata![F,,F,]4- | [F,,F,]8 |] %36
V:4
 x8 | x8 | x8 | x8 | x8 | x8 | x8 | x8 | x8 | x8 | x8 | x8 | x8 | x8 | x8 | x8 | G,,4 x4 | x8 | %18
 x8 | x8 | x4 D,4 | F,4 C,6 | _A,4 C,2 x2 | x8 | x8 | C,4 x4 | x8 | x8 | x8 | x8 | x8 | %31
 (A,,2 F,,2) x4 | x8 | x8 | x8 | x8 |] %36

